icons/calculator-fill.svg

<svg viewBox="0 0 24 24" fill="currentColor" xmlns="http://www.w3.org/2000/svg"><path d="M4 2H20C20.5523 2 21 2.44772 21 3V21C21 21.5523 20.5523 22 20 22H4C3.44772 22 3 21.5523 3 21V3C3 2.44772 3.44772 2 4 2ZM7 12V14H9V12H7ZM7 16V18H9V16H7ZM11 12V14H13V12H11ZM11 16V18H13V16H11ZM15 12V18H17V12H15ZM7 6V10H17V6H7Z"/></svg>

<svg xmlns="http://www.w3.org/2000/svg" viewBox="0 0 24 24">
    <g>
        <path fill="none" d="M0 0h24v24H0z"/>
        <path d="M4 2h16a1 1 0 0 1 1 1v18a1 1 0 0 1-1 1H4a1 1 0 0 1-1-1V3a1 1 0 0 1 1-1zm3 10v2h2v-2H7zm0 4v2h2v-2H7zm4-4v2h2v-2h-2zm0 4v2h2v-2h-2zm4-4v6h2v-6h-2zM7 6v4h10V6H7z"/>
    </g>
</svg>
